www/assets/icons/no_flash.svg

<svg width="24" height="24" viewBox="0 0 24 24" xmlns="http://www.w3.org/2000/svg" fill='currentColor'><path d="M2.93002 1.97002L1.52002 3.39002L6.82002 8.69002L6.62002 8.92002H4.08002C3.20002 8.92002 2.48002 9.64002 2.48002 10.52V19.92C2.48002 20.8 3.20002 21.52 4.08002 21.52H16.88C17.63 21.52 18.26 21 18.43 20.3L20.61 22.48L22.02 21.07L18.48 17.52L2.93002 1.97002ZM10.48 19.52C8.27002 19.52 6.48002 17.73 6.48002 15.52C6.48002 13.57 7.88002 11.95 9.73002 11.6L11.3 13.17C11.04 13.08 10.77 13.02 10.48 13.02C9.10002 13.02 7.98002 14.14 7.98002 15.52C7.98002 16.9 9.10002 18.02 10.48 18.02C11.86 18.02 12.98 16.9 12.98 15.52C12.98 15.23 12.92 14.96 12.83 14.7L14.4 16.27C14.05 18.12 12.43 19.52 10.48 19.52ZM18.48 14.69L11.31 7.52002H13.06L14.34 8.92002H16.88C17.76 8.92002 18.48 9.64002 18.48 10.52V14.69ZM20.88 5.12002H22.48L19.48 10.52V6.52002H18.48V1.52002H22.48L20.88 5.12002Z"/></svg>

<svg xmlns="http://www.w3.org/2000/svg" width="24" height="24" viewBox="0 0 24 24" fill='currentColor'><path d="M2.93 1.97 1.52 3.39l5.3 5.3-.2.23H4.08c-.88 0-1.6.72-1.6 1.6v9.4c0 .88.72 1.6 1.6 1.6h12.8c.75 0 1.38-.52 1.55-1.22l2.18 2.18 1.41-1.41-3.54-3.55zm7.55 17.55c-2.21 0-4-1.79-4-4 0-1.95 1.4-3.57 3.25-3.92l1.57 1.57c-.26-.09-.53-.15-.82-.15a2.5 2.5 0 0 0 0 5 2.5 2.5 0 0 0 2.5-2.5c0-.29-.06-.56-.15-.82l1.57 1.57a3.99 3.99 0 0 1-3.92 3.25m8-4.83-7.17-7.17h1.75l1.28 1.4h2.54c.88 0 1.6.72 1.6 1.6zm2.4-9.57h1.6l-3 5.4v-4h-1v-5h4z"/></svg>
